svg/SJJB-OpenStreetMapIcons/transport/aerodrome2.svg

<?xml version="1.0" encoding="UTF-8" standalone="no"?>
<!-- Created with Inkscape (http://www.inkscape.org/) -->
<svg
   xmlns:dc="http://purl.org/dc/elements/1.1/"
   xmlns:cc="http://creativecommons.org/ns#"
   xmlns:rdf="http://www.w3.org/1999/02/22-rdf-syntax-ns#"
   xmlns:svg="http://www.w3.org/2000/svg"
   xmlns="http://www.w3.org/2000/svg"
   xmlns:sodipodi="http://sodipodi.sourceforge.net/DTD/sodipodi-0.dtd"
   xmlns:inkscape="http://www.inkscape.org/namespaces/inkscape"
   version="1.0"
   width="580"
   height="580"
   id="svg2"
   sodipodi:version="0.32"
   inkscape:version="0.46"
   sodipodi:docname="transport_aerodrome2.svg"
   sodipodi:docbase="s:\Data\FacilityIcons"
   inkscape:output_extension="org.inkscape.output.svg.inkscape">
  <metadata
     id="metadata2975">
    <rdf:RDF>
      <cc:Work
         rdf:about="">
        <dc:format>image/svg+xml</dc:format>
        <dc:type
           rdf:resource="http://purl.org/dc/dcmitype/StillImage" />
        <cc:license
           rdf:resource="http://web.resource.org/cc/PublicDomain" />
        <dc:language>en</dc:language>
      </cc:Work>
    </rdf:RDF>
  </metadata>
  <sodipodi:namedview
     inkscape:window-height="947"
     inkscape:window-width="1048"
     inkscape:pageshadow="2"
     inkscape:pageopacity="0.0"
     guidetolerance="10.0"
     gridtolerance="10.0"
     objecttolerance="10.0"
     borderopacity="1.0"
     bordercolor="#666666"
     pagecolor="#ffffff"
     id="base"
     inkscape:zoom="0.46083856"
     inkscape:cx="-105.1317"
     inkscape:cy="264.20705"
     inkscape:window-x="11"
     inkscape:window-y="13"
     inkscape:current-layer="svg2"
     showgrid="false" />
  <defs
     id="defs4">
    <inkscape:perspective
       sodipodi:type="inkscape:persp3d"
       inkscape:vp_x="0 : 290 : 1"
       inkscape:vp_y="0 : 1000 : 0"
       inkscape:vp_z="580 : 290 : 1"
       inkscape:persp3d-origin="290 : 193.33333 : 1"
       id="perspective2441" />
    <inkscape:perspective
       id="perspective3452"
       inkscape:persp3d-origin="30 : 20 : 1"
       inkscape:vp_z="60 : 30 : 1"
       inkscape:vp_y="0 : 1000 : 0"
       inkscape:vp_x="0 : 30 : 1"
       sodipodi:type="inkscape:persp3d" />
    <symbol
       viewBox="244.5 110 489 219.9"
       id="symbol-university">
      <path
         id="path4460"
         d="M79,43l57,119c0,0,21-96,104-96s124,106,124,106l43-133l82-17L0,17L79,43z" />
      <path
         id="path4462"
         d="M94,176l-21,39"
         stroke-width="20"
         stroke="#000000"
         fill="none" />
      <path
         id="path4464"
         d="M300,19c0,10.5-22.6,19-50.5,19S199,29.5,199,19s22.6-19,50.5-19S300,8.5,300,19z" />
      <path
         id="path4466"
         d="M112,216l-16-38L64,88c0,0-9-8-4-35s16-24,16-24"
         stroke-width="20"
         stroke="#000000"
         ill="none" />
    </symbol>
    <inkscape:perspective
       id="perspective4471"
       inkscape:persp3d-origin="372.04724 : 350.78739 : 1"
       inkscape:vp_z="744.09448 : 526.18109 : 1"
       inkscape:vp_y="0 : 1000 : 0"
       inkscape:vp_x="0 : 526.18109 : 1"
       sodipodi:type="inkscape:persp3d" />
    <inkscape:perspective
       id="perspective4668"
       inkscape:persp3d-origin="6 : 4 : 1"
       inkscape:vp_z="12 : 6 : 1"
       inkscape:vp_y="0 : 1000 : 0"
       inkscape:vp_x="0 : 6 : 1"
       sodipodi:type="inkscape:persp3d" />
    <inkscape:perspective
       id="perspective4904"
       inkscape:persp3d-origin="16 : 10.666667 : 1"
       inkscape:vp_z="32 : 16 : 1"
       inkscape:vp_y="0 : 1000 : 0"
       inkscape:vp_x="0 : 16 : 1"
       sodipodi:type="inkscape:persp3d" />
    <marker
       style="overflow:visible;"
       id="Arrow2Lend"
       refX="0.0"
       refY="0.0"
       orient="auto"
       inkscape:stockid="Arrow2Lend">
      <path
         transform="scale(1.1) rotate(180) translate(1,0)"
         d="M 8.7185878,4.0337352 L -2.2072895,0.016013256 L 8.7185884,-4.0017078 C 6.9730900,-1.6296469 6.9831476,1.6157441 8.7185878,4.0337352 z "
         style="font-size:12.0;fill-rule:evenodd;stroke-width:0.62500000;stroke-linejoin:round;"
         id="path4137" />
    </marker>
    <marker
       style="overflow:visible;"
       id="Arrow1Mend"
       refX="0.0"
       refY="0.0"
       orient="auto"
       inkscape:stockid="Arrow1Mend">
      <path
         transform="scale(0.4) rotate(180) translate(10,0)"
         style="fill-rule:evenodd;stroke:#000000;stroke-width:1.0pt;marker-start:none;"
         d="M 0.0,0.0 L 5.0,-5.0 L -12.5,0.0 L 5.0,5.0 L 0.0,0.0 z "
         id="path4125" />
    </marker>
    <marker
       style="overflow:visible"
       id="TriangleOutL"
       refX="0.0"
       refY="0.0"
       orient="auto"
       inkscape:stockid="TriangleOutL">
      <path
         transform="scale(0.8)"
         style="fill-rule:evenodd;stroke:#000000;stroke-width:1.0pt;marker-start:none"
         d="M 5.77,0.0 L -2.88,5.0 L -2.88,-5.0 L 5.77,0.0 z "
         id="path4214" />
    </marker>
    <marker
       style="overflow:visible;"
       id="Arrow1Lend"
       refX="0.0"
       refY="0.0"
       orient="auto"
       inkscape:stockid="Arrow1Lend">
      <path
         transform="scale(0.8) rotate(180) translate(12.5,0)"
         style="fill-rule:evenodd;stroke:#000000;stroke-width:1.0pt;marker-start:none;"
         d="M 0.0,0.0 L 5.0,-5.0 L -12.5,0.0 L 5.0,5.0 L 0.0,0.0 z "
         id="path4119" />
    </marker>
    <marker
       style="overflow:visible"
       id="Tail"
       refX="0.0"
       refY="0.0"
       orient="auto"
       inkscape:stockid="Tail">
      <g
         transform="scale(-1.2)"
         id="g4152">
        <path
           style="fill:none;fill-rule:evenodd;stroke:#000000;stroke-width:0.8;marker-start:none;marker-end:none;stroke-linecap:round"
           d="M -3.8048674,-3.9585227 L 0.54352094,0"
           id="path4154" />
        <path
           style="fill:none;fill-rule:evenodd;stroke:#000000;stroke-width:0.8;marker-start:none;marker-end:none;stroke-linecap:round"
           d="M -1.2866832,-3.9585227 L 3.0617053,0"
           id="path4156" />
        <path
           style="fill:none;fill-rule:evenodd;stroke:#000000;stroke-width:0.8;marker-start:none;marker-end:none;stroke-linecap:round"
           d="M 1.3053582,-3.9585227 L 5.6537466,0"
           id="path4158" />
        <path
           style="fill:none;fill-rule:evenodd;stroke:#000000;stroke-width:0.8;marker-start:none;marker-end:none;stroke-linecap:round"
           d="M -3.8048674,4.1775838 L 0.54352094,0.21974226"
           id="path4160" />
        <path
           style="fill:none;fill-rule:evenodd;stroke:#000000;stroke-width:0.8;marker-start:none;marker-end:none;stroke-linecap:round"
           d="M -1.2866832,4.1775838 L 3.0617053,0.21974226"
           id="path4162" />
        <path
           style="fill:none;fill-rule:evenodd;stroke:#000000;stroke-width:0.8;marker-start:none;marker-end:none;stroke-linecap:round"
           d="M 1.3053582,4.1775838 L 5.6537466,0.21974226"
           id="path4164" />
      </g>
    </marker>
    <marker
       style="overflow:visible"
       id="Arrow1Sstart"
       refX="0.0"
       refY="0.0"
       orient="auto"
       inkscape:stockid="Arrow1Sstart">
      <path
         transform="scale(0.2) translate(6,0)"
         style="fill-rule:evenodd;stroke:#000000;stroke-width:1.0pt;marker-start:none"
         d="M 0.0,0.0 L 5.0,-5.0 L -12.5,0.0 L 5.0,5.0 L 0.0,0.0 z "
         id="path4128" />
    </marker>
    <marker
       style="overflow:visible;"
       id="Arrow1Send"
       refX="0.0"
       refY="0.0"
       orient="auto"
       inkscape:stockid="Arrow1Send">
      <path
         transform="scale(0.2) rotate(180) translate(6,0)"
         style="fill-rule:evenodd;stroke:#000000;stroke-width:1.0pt;marker-start:none;"
         d="M 0.0,0.0 L 5.0,-5.0 L -12.5,0.0 L 5.0,5.0 L 0.0,0.0 z "
         id="path4131" />
    </marker>
    <marker
       style="overflow:visible"
       id="SemiCircleOut"
       refX="0.0"
       refY="0.0"
       orient="auto"
       inkscape:stockid="SemiCircleOut">
      <path
         transform="scale(0.6) translate(7.125493,0.763446)"
         style="fill-rule:evenodd;stroke:#000000;stroke-width:1.0pt;marker-start:none;marker-end:none"
         d="M -2.5,-0.80913858 C -2.5,1.9508614 -4.7400000,4.1908614 -7.5,4.1908614 L -7.5,-5.8091386 C -4.7400000,-5.8091386 -2.5,-3.5691386 -2.5,-0.80913858 z "
         id="path4235" />
    </marker>
    <marker
       style="overflow:visible;"
       id="Arrow2Send"
       refX="0.0"
       refY="0.0"
       orient="auto"
       inkscape:stockid="Arrow2Send">
      <path
         transform="scale(0.3) rotate(180) translate(-2.3,0)"
         d="M 8.7185878,4.0337352 L -2.2072895,0.016013256 L 8.7185884,-4.0017078 C 6.9730900,-1.6296469 6.9831476,1.6157441 8.7185878,4.0337352 z "
         style="font-size:12.0;fill-rule:evenodd;stroke-width:0.62500000;stroke-linejoin:round;"
         id="path4149" />
    </marker>
    <marker
       style="overflow:visible"
       id="TriangleOutS"
       refX="0.0"
       refY="0.0"
       orient="auto"
       inkscape:stockid="TriangleOutS">
      <path
         transform="scale(0.2)"
         style="fill-rule:evenodd;stroke:#000000;stroke-width:1.0pt;marker-start:none"
         d="M 5.77,0.0 L -2.88,5.0 L -2.88,-5.0 L 5.77,0.0 z "
         id="path4220" />
    </marker>
    <marker
       style="overflow:visible"
       id="CurveIn"
       refX="0.0"
       refY="0.0"
       orient="auto"
       inkscape:stockid="CurveIn">
      <path
         transform="scale(0.6)"
         style="fill-rule:evenodd;stroke:#000000;stroke-width:1.0pt;marker-start:none;marker-end:none;fill:none"
         d="M 4.6254930,-5.0456926 C 1.8654930,-5.0456926 -0.37450702,-2.8056926 -0.37450702,-0.045692580 C -0.37450702,2.7143074 1.8654930,4.9543074 4.6254930,4.9543074"
         id="path4238" />
    </marker>
    <marker
       orient="auto"
       refY="0"
       refX="0"
       id="InfiniteLineStart"
       inkscape:stockid="InfiniteLineStart"
       style="overflow:visible">
      <g
         transform="translate(-13,0)"
         id="g4298">
        <circle
           cx="3"
           cy="0"
           r="0.8"
           id="circle4300" />
        <circle
           cx="6.5"
           cy="0"
           r="0.8"
           id="circle4302" />
        <circle
           cx="10"
           cy="0"
           r="0.8"
           id="circle4304" />
      </g>
    </marker>
    <marker
       style="overflow:visible"
       id="StopS"
       refX="0.0"
       refY="0.0"
       orient="auto"
       inkscape:stockid="StopS">
      <path
         transform="scale(0.2)"
         style="fill:none;fill-opacity:0.75000000;fill-rule:evenodd;stroke:#000000;stroke-width:1.0pt"
         d="M 0.0,5.65 L 0.0,-5.65"
         id="path4229" />
    </marker>
    <marker
       style="overflow:visible"
       id="Arrow2Sstart"
       refX="0.0"
       refY="0.0"
       orient="auto"
       inkscape:stockid="Arrow2Sstart">
      <path
         transform="scale(0.3) translate(-2.3,0)"
         d="M 8.7185878,4.0337352 L -2.2072895,0.016013256 L 8.7185884,-4.0017078 C 6.9730900,-1.6296469 6.9831476,1.6157441 8.7185878,4.0337352 z "
         style="font-size:12.0;fill-rule:evenodd;stroke-width:0.62500000;stroke-linejoin:round"
         id="path4146" />
    </marker>
    <marker
       style="overflow:visible"
       id="DiamondS"
       refX="0.0"
       refY="0.0"
       orient="auto"
       inkscape:stockid="DiamondS">
      <path
         transform="scale(0.2)"
         style="fill-rule:evenodd;stroke:#000000;stroke-width:1.0pt;marker-start:none"
         d="M 0,-7.0710768 L -7.0710894,0 L 0,7.0710589 L 7.0710462,0 L 0,-7.0710768 z "
         id="path4202" />
    </marker>
    <marker
       orient="auto"
       refY="0"
       refX="0"
       id="RazorWire"
       inkscape:stockid="RazorWire">
       style=&quot;overflow:visible&quot;&gt;
      <path
   d="M 0.022727273,-0.74009011 L 0.022727273,0.69740989 L -7.7585227,3.0099099 L 10.678977,3.0099099 L 3.4914773,0.69740989 L 3.4914773,-0.74009011 L 10.741477,-2.8963401 L -7.7272727,-2.8963401 L 0.022727273,-0.74009011 z "
   style="fill:#808080;fill-opacity:1;fill-rule:evenodd;stroke:#000000;stroke-width:0.1pt"
   transform="scale(0.8,0.8)"
   id="path4286" />
</marker>
    <inkscape:perspective
       id="perspective5233"
       inkscape:persp3d-origin="16 : 10.666667 : 1"
       inkscape:vp_z="32 : 16 : 1"
       inkscape:vp_y="0 : 1000 : 0"
       inkscape:vp_x="0 : 16 : 1"
       sodipodi:type="inkscape:persp3d" />
    <inkscape:perspective
       id="perspective5412"
       inkscape:persp3d-origin="250 : 166.66667 : 1"
       inkscape:vp_z="500 : 250 : 1"
       inkscape:vp_y="0 : 1000 : 0"
       inkscape:vp_x="0 : 250 : 1"
       sodipodi:type="inkscape:persp3d" />
    <inkscape:perspective
       id="perspective5571"
       inkscape:persp3d-origin="202.85715 : 136.19048 : 1"
       inkscape:vp_z="405.71429 : 204.28572 : 1"
       inkscape:vp_y="0 : 1000 : 0"
       inkscape:vp_x="0 : 204.28572 : 1"
       sodipodi:type="inkscape:persp3d" />
    <inkscape:perspective
       id="perspective6552"
       inkscape:persp3d-origin="64 : 42.666667 : 1"
       inkscape:vp_z="128 : 64 : 1"
       inkscape:vp_y="0 : 1000 : 0"
       inkscape:vp_x="0 : 64 : 1"
       sodipodi:type="inkscape:persp3d" />
    <inkscape:perspective
       id="perspective8761"
       inkscape:persp3d-origin="238.5 : 114.33333 : 1"
       inkscape:vp_z="477 : 171.5 : 1"
       inkscape:vp_y="0 : 1000 : 0"
       inkscape:vp_x="0 : 171.5 : 1"
       sodipodi:type="inkscape:persp3d" />
    <inkscape:perspective
       id="perspective10479"
       inkscape:persp3d-origin="52.830002 : 33.539668 : 1"
       inkscape:vp_z="105.66 : 50.309502 : 1"
       inkscape:vp_y="0 : 1000 : 0"
       inkscape:vp_x="0 : 50.309502 : 1"
       sodipodi:type="inkscape:persp3d" />
    <marker
       viewBox="0 0 10 10"
       refY="5"
       refX="10"
       orient="auto"
       markerWidth="4"
       markerUnits="strokeWidth"
       markerHeight="3"
       id="ArrowStart">
      <path
         id="path1968"
         d="M 10 0 L 0 5 L 10 10 z" />
    </marker>
    <marker
       viewBox="0 0 10 10"
       refY="5"
       refX="0"
       orient="auto"
       markerWidth="4"
       markerUnits="strokeWidth"
       markerHeight="3"
       id="ArrowEnd">
      <path
         id="path1965"
         d="M 0 0 L 10 5 L 0 10 z" />
    </marker>
    <inkscape:perspective
       id="perspective10853"
       inkscape:persp3d-origin="223.9745 : 153.55566 : 1"
       inkscape:vp_z="447.94901 : 230.3335 : 1"
       inkscape:vp_y="0 : 1000 : 0"
       inkscape:vp_x="0 : 230.3335 : 1"
       sodipodi:type="inkscape:persp3d" />
  </defs>
  <g
     id="g1327">
    <path
       d="M 66.275,1.768 C 24.94,1.768 1.704,23.139 1.704,66.804 L 1.704,516.927 C 1.704,557.771 22.599,579.156 63.896,579.156 L 515.92,579.156 C 557.227,579.156 578.149,558.841 578.149,516.927 L 578.149,66.804 C 578.149,24.203 557.227,1.768 514.628,1.768 C 514.624,1.768 66.133,1.625 66.275,1.768 z "
       style="fill:#111;stroke:#eee;stroke-width:3.40799999"
       id="path1329" />
  </g>
  <g
     id="layer3"
     inkscape:label="Layout"
     style="display:none;stroke:#757575;stroke-opacity:1"
     transform="matrix(48.14969,0,0,48.14969,-536.27327,-33.306752)">
    <rect
       style="fill:none;stroke:#757575;stroke-width:0.10000000000000001;stroke-miterlimit:4;stroke-dasharray:none;stroke-opacity:1;display:inline"
       id="rect4134"
       width="10"
       height="10"
       x="1"
       y="1" />
    <rect
       style="fill:none;stroke:#757575;stroke-width:0.10000000000000001;stroke-miterlimit:4;stroke-dasharray:none;stroke-opacity:1;display:inline"
       id="rect4136"
       width="8"
       height="8"
       x="2"
       y="2" />
  </g>
  <g
     id="g1970"
     transform="matrix(1.0636474,0,0,1.0636474,54.538903,43.810085)"
     style="fill:none;fill-opacity:1;stroke:#ffffff;stroke-width:13.16225659;stroke-linecap:round;stroke-linejoin:round;stroke-miterlimit:4;stroke-dasharray:none;stroke-dashoffset:0;stroke-opacity:1">
    <path
       style="fill:none;fill-opacity:1;stroke:#ffffff;stroke-width:13.16225659;stroke-linecap:round;stroke-linejoin:round;stroke-miterlimit:4;stroke-dasharray:none;stroke-dashoffset:0;stroke-opacity:1"
       d="M 221.15625,-6.09375 C 198.51115,-6.491205 186.05456,14.772386 186.90625,39.84375 C 186.71778,82.114252 187.35726,120.38975 186.53125,162.65625 C 171.1735,175.50057 151.9002,182.35125 136.00211,194.47543 C 88.987677,223.82604 40.490896,251.07936 -5.4731279,281.93821 C -14.815543,300.02389 -7.68165,320.79227 -10.0625,340.03125 C -8.0596933,350.4973 6.0716172,353.55748 13.925014,347.55125 C 72.369443,329.48169 129.83669,308.3192 188.53125,291.0625 C 188.29084,313.3957 189.48251,335.72121 188.8125,358.0625 C 188.31884,364.88349 189.43861,372.42284 187.40625,378.78125 C 174.37767,393.39567 152.65577,399.94182 144.4375,418.65625 C 141.72819,430.82399 144.0179,443.46129 143.25,455.78125 C 144.21676,464.43543 153.44035,472.33077 162.06024,468.27453 C 179.13498,462.83826 196.47296,458.23505 213.21875,452.125 C 222.07206,448.90102 231.60969,450.07651 240.04636,453.77294 C 258.88783,459.52054 277.74565,468.4944 297.6875,468.21875 C 307.32494,463.70322 305.75057,451.38746 304.78843,442.72386 C 306.50122,429.98077 306.87248,413.59554 294.65663,405.7503 C 283.09994,396.44386 270.51072,388.25195 259.78125,377.90625 C 259.06854,349.0237 258.17919,318.78433 260,290.71875 C 282.5026,298.44946 305.47965,304.77775 327.92923,312.74245 C 367.69671,325.83909 407.18468,340.24889 447.75,350.5625 C 457.92467,348.84948 460.32269,335.76225 457.4375,327.28125 C 457.08339,312.41473 461.60407,295.77462 453.21875,282.34375 C 418.87981,257.5749 380.8111,238.60866 345.24054,215.69384 C 316.50415,198.45189 287.79609,181.16284 259.125,163.8125 C 255.89244,145.22229 260.03209,126.18634 258.02115,107.43755 C 257.88442,75.192179 260.4085,46.625487 255.15625,14.65625 C 249.37829,1.69543 235.26658,-6.685235 221.15625,-6.09375 z"
       id="path1972"
       sodipodi:nodetypes="ccccccccccccccccccccccccccccc" />
  </g>
  <g
     style="opacity:0.25;fill:#ffffff;fill-opacity:1;stroke:none;stroke-width:16.66157722;stroke-linecap:round;stroke-linejoin:round;stroke-miterlimit:4;stroke-dasharray:none;stroke-dashoffset:0;stroke-opacity:1"
     transform="matrix(1.0636474,0,0,1.0636474,79.856107,43.810085)"
     id="g6915">
    <path
       sodipodi:nodetypes="ccccccccccccccccccccccccccccc"
       id="path6917"
       d="M 197.354,-6.09375 C 174.7089,-6.491205 163.22075,18.323314 163.104,39.84375 C 162.91553,82.114252 163.55501,120.38975 162.729,162.65625 C 147.37125,175.50057 128.09795,182.35125 112.19986,194.47543 C 65.185424,223.82604 16.688643,251.07936 -29.275381,281.93821 C -38.617796,300.02389 -31.483903,320.79227 -33.864753,340.03125 C -31.861946,350.4973 -17.730636,353.55748 -9.8772388,347.55125 C 48.56719,329.48169 106.03444,308.3192 164.729,291.0625 C 164.48859,313.3957 165.68026,335.72121 165.01025,358.0625 C 164.51659,364.88349 165.63636,372.42284 163.604,378.78125 C 150.57542,393.39567 128.85352,399.94182 120.63525,418.65625 C 117.92594,430.82399 120.21565,443.46129 119.44775,455.78125 C 120.41451,464.43543 129.6381,472.33077 138.25799,468.27453 C 155.33273,462.83826 172.67071,458.23505 189.4165,452.125 C 198.26981,448.90102 207.80744,450.07651 216.24411,453.77294 C 235.08558,459.52054 253.9434,468.4944 273.88525,468.21875 C 283.52269,463.70322 281.94832,451.38746 280.98618,442.72386 C 282.69897,429.98077 283.07023,413.59554 270.85438,405.7503 C 259.29769,396.44386 246.70847,388.25195 235.979,377.90625 C 235.26629,349.0237 234.37694,318.78433 236.19775,290.71875 C 258.70035,298.44946 281.6774,304.77775 304.12698,312.74245 C 343.89446,325.83909 383.38243,340.24889 423.94775,350.5625 C 434.12242,348.84948 436.52044,335.76225 433.63525,327.28125 C 433.28114,312.41473 437.80182,295.77462 429.4165,282.34375 C 395.07756,257.5749 357.00885,238.60866 321.43829,215.69384 C 292.7019,198.45189 263.99384,181.16284 235.32275,163.8125 C 232.09019,145.22229 236.22984,126.18634 234.2189,107.43755 C 234.08217,75.192179 236.60625,46.625487 231.354,14.65625 C 225.57604,1.69543 211.46433,-6.685235 197.354,-6.09375 z"
       style="fill:#ffffff;fill-opacity:1;stroke:none;stroke-width:16.66157722;stroke-linecap:round;stroke-linejoin:round;stroke-miterlimit:4;stroke-dasharray:none;stroke-dashoffset:0;stroke-opacity:1" />
  </g>
</svg>

<svg xmlns="http://www.w3.org/2000/svg" viewBox="0 0 580 580"><path d="m66.28 1.768c-41.34 0-64.57 21.371-64.57 65.04v450.12c0 40.844 20.895 62.23 62.19 62.23h452.02c41.31 0 62.23-20.315 62.23-62.23v-450.12c0-42.601-20.922-65.04-63.52-65.04-.004 0-448.5-.143-448.35 0z" fill="#111" stroke="#eee" stroke-width="3.408"/><g fill="none" stroke="#fff" stroke-linejoin="round" stroke-linecap="round" stroke-width="13.162"><path d="m221.16-6.094c-22.645-.397-35.1 20.866-34.25 45.938-.188 42.27.451 80.55-.375 122.81-15.358 12.844-34.631 19.695-50.53 31.819-47.01 29.351-95.51 56.6-141.48 87.46-9.342 18.09-2.209 38.854-4.589 58.09 2 10.466 16.13 13.526 23.988 7.52 58.44-18.07 115.91-39.23 174.61-56.49-.24 22.333.951 44.659.281 67-.494 6.821.626 14.36-1.406 20.719-13.03 14.614-34.75 21.16-42.969 39.875-2.709 12.168-.42 24.805-1.188 37.12.967 8.654 10.19 16.55 18.81 12.493 17.07-5.436 34.413-10.04 51.16-16.15 8.853-3.224 18.391-2.048 26.828 1.648 18.841 5.748 37.699 14.721 57.641 14.446 9.637-4.516 8.06-16.831 7.101-25.495 1.713-12.743 2.084-29.13-10.132-36.974-11.557-9.306-24.15-17.498-34.875-27.844-.713-28.883-1.602-59.12.219-87.19 22.503 7.731 45.48 14.06 67.929 22.02 39.767 13.1 79.26 27.506 119.82 37.82 10.175-1.713 12.573-14.8 9.688-23.281-.354-14.867 4.167-31.507-4.219-44.938-34.34-24.769-72.41-43.735-107.98-66.65-28.736-17.242-57.44-34.531-86.12-51.881-3.233-18.59.907-37.626-1.104-56.37-.137-32.25 2.387-60.812-2.865-92.78-5.778-12.961-19.89-21.341-34-20.75z" stroke="#fff" stroke-width="13.162" transform="matrix(1.06365 0 0 1.06365 54.54 43.81)"/></g><g opacity=".25" fill="#fff" stroke="none"><path d="m197.35-6.094c-22.645-.397-34.13 24.417-34.25 45.938-.188 42.27.451 80.55-.375 122.81-15.358 12.844-34.631 19.695-50.53 31.819-47.01 29.351-95.51 56.6-141.48 87.46-9.342 18.09-2.209 38.854-4.589 58.09 2 10.466 16.13 13.526 23.988 7.52 58.44-18.07 115.91-39.23 174.61-56.49-.24 22.333.951 44.659.281 67-.494 6.821.626 14.36-1.406 20.719-13.03 14.614-34.75 21.16-42.969 39.875-2.709 12.168-.42 24.805-1.188 37.12.967 8.654 10.19 16.55 18.81 12.493 17.07-5.436 34.413-10.04 51.16-16.15 8.853-3.224 18.391-2.048 26.828 1.648 18.841 5.748 37.699 14.721 57.641 14.446 9.637-4.516 8.06-16.831 7.101-25.495 1.713-12.743 2.084-29.13-10.132-36.974-11.557-9.306-24.15-17.498-34.875-27.844-.713-28.883-1.602-59.12.219-87.19 22.503 7.731 45.48 14.06 67.929 22.02 39.767 13.1 79.26 27.506 119.82 37.82 10.175-1.713 12.573-14.8 9.688-23.281-.354-14.867 4.167-31.507-4.219-44.938-34.34-24.769-72.41-43.735-107.98-66.65-28.736-17.242-57.44-34.531-86.12-51.881-3.233-18.59.907-37.626-1.104-56.37-.137-32.25 2.387-60.812-2.865-92.78-5.778-12.961-19.89-21.341-34-20.75" fill="#fff" stroke-linejoin="round" stroke-linecap="round" stroke-width="16.662" transform="matrix(1.06365 0 0 1.06365 79.86 43.81)"/></g></svg>
